src/img/channel/channel_17.svg

<svg fill="none" height="48" viewBox="0 0 160 48" width="160" xmlns="http://www.w3.org/2000/svg"><path clip-rule="evenodd" d="m0 0v47.015h32.8072v-47.015zm28.0598 4.73581v37.54299h-23.33569v-37.54299z" fill="#ffd520" fill-rule="evenodd"/><g fill="#fff"><path d="m54.6059 21.0879h-2.0298c-2.6602-3.7613-5.3093-7.4995-7.9466-11.73074v11.73074h-2.2931v-16.36353h2.0295c2.6604 3.73823 5.3092 7.45363 7.9236 11.66203v-11.66203h2.2935v16.36353z"/><path clip-rule="evenodd" d="m55.3398 21.0879 5.6648-16.35201.069-.01152h2.2931l5.1717 16.36353h-3.1306l-1.2841-4.4607h-4.9309l-1.4218 4.4607zm4.9116-7.5238c-.108.3501-.2162.7012-.3245 1.0564h3.7382c-.1184-.418-.236-.8303-.3534-1.242-.4849-1.7002-.9666-3.38925-1.4928-5.4202-.4879 2.1047-1.0237 3.8424-1.5675 5.6058z" fill-rule="evenodd"/><path d="m71.1988 21.0878v-14.16172h-4.3004v-2.19024h11.3755v2.19024h-4.3v14.16172h-2.8094z"/><path d="m79.2256 21.0879v-16.36353h2.7864v16.36353z"/><path clip-rule="evenodd" d="m97.584 12.6022c0 4.8851-2.6603 8.692-6.9374 8.692v.0803c-4.277 0-6.9376-3.8187-6.9376-8.7723 0-4.58675 2.9472-8.2333 6.9376-8.2333s6.9374 3.64655 6.9374 8.2333zm-10.8936.0457c0 3.1306 1.0322 6.3528 3.9562 6.3528 2.9241 0 3.9448-3.3368 3.9448-6.3528 0-3.01564-1.1352-5.89404-3.9448-5.89404-2.8095 0-3.9562 2.76352-3.9562 5.89404z" fill-rule="evenodd"/><path d="m111.528 21.0879h-2.029c-2.661-3.7613-5.31-7.4995-7.947-11.73074v11.73074h-2.2932v-16.36353h2.0292c2.661 3.73823 5.31 7.45363 7.924 11.66203v-11.66203h2.293v16.36353z"/><path clip-rule="evenodd" d="m112.308 21.0993 5.653-16.36346h.035 2.293l5.218 16.36346h-3.131l-1.284-4.4608h-4.931l-1.422 4.4608zm4.899-7.5316c-.108.3488-.216.6988-.324 1.0527h3.739c-.115-.4056-.229-.8059-.343-1.2054-.489-1.7126-.974-3.4113-1.504-5.45681-.488 2.10611-1.024 3.84481-1.568 5.60951z" fill-rule="evenodd"/><path d="m126.321 4.72437h2.787v14.16173h5.538v2.2018h-8.325z"/><path d="m52.8745 34.7795v6.7539c-1.4755.6231-3.0543.9651-4.6554 1.0091-4.8163 0-7.8553-3.7382-7.8553-8.5542 0-4.461 3.039-8.3709 7.9468-8.3709 1.42.0079 2.8037.4479 3.9677 1.2613l-.9059 1.9379c-.9061-.5417-1.9374-.8379-2.9926-.8598-2.9932 0-5.0229 2.3622-5.0229 6.0774s2.2933 6.1693 4.7475 6.1693c.6766.0293 1.3501-.1088 1.9606-.4014v-5.0226z"/><path d="m62.9082 28.0939h-4.6785v4.4838h4.5867v2.2018h-4.5867v5.2862h5.5157v2.2016h-8.325v-16.3862h7.4766v2.2016z"/><path clip-rule="evenodd" d="m78.4921 33.8048c0 4.8848-2.6605 8.692-6.9376 8.692v.0458c-4.2772 0-6.9373-3.8071-6.9373-8.7378 0-4.5867 2.947-8.2333 6.9373-8.2333 3.9905 0 6.9376 3.6466 6.9376 8.2333zm-10.8822.0459c0 3.1303 1.0206 6.3527 3.9446 6.3527 2.9242 0 3.9562-3.337 3.9563-6.3527 0-3.016-1.1582-5.8942-3.9563-5.8942-2.7979 0-3.9446 2.7637-3.9446 5.8942z" fill-rule="evenodd"/><path d="m91.9658 34.7795v6.7539c-1.4755.6231-3.0546.9651-4.6557 1.0091-4.8161 0-7.855-3.7382-7.855-8.5542 0-4.461 3.0389-8.3709 7.9469-8.3709 1.4198.0079 2.8035.4479 3.9675 1.2613l-.9058 1.9379c-.9062-.5417-1.9378-.8379-2.9931-.8598-2.9928 0-5.0226 2.3622-5.0226 6.0774s2.2935 6.1693 4.7474 6.1693c.6766.0293 1.3501-.1088 1.9609-.4014v-5.0226z"/><path clip-rule="evenodd" d="m101.208 35.479 3.245 6.7771h-3.142l-2.6371-6.1696h-1.2614v6.1696h-2.8095v-16.3635h4.369c3.13 0 5.068 1.5478 5.068 4.7243.019 2.0174-1.068 3.8829-2.832 4.8621zm-3.8414-7.3851h-.023l.023-.0114zm0 0v5.9517l1.1467-.0688c.0604-.004.1204-.0101.18-.0178 1.5767-.2062 2.6867-1.6512 2.4807-3.2275.02-.169.021-.3397.004-.5091-.129-1.3048-1.2914-2.2576-2.5959-2.1285z" fill-rule="evenodd"/><path clip-rule="evenodd" d="m104.5 42.2444 5.653-16.3633h.046 2.293l5.217 16.3633h-3.13l-1.284-4.4609h-4.931l-1.422 4.4609zm4.899-7.5124c-.107.3502-.216.7014-.324 1.0566h3.738c-.143-.5073-.285-1.0051-.426-1.5026-.461-1.6168-.92-3.2307-1.42-5.1599-.488 2.1049-1.024 3.8426-1.568 5.6059z" fill-rule="evenodd"/><path clip-rule="evenodd" d="m118.626 25.8811h4.369c3.096 0 5.034 1.5592 5.08 4.7357.002.0539.002.108.002.1621-.02 2.9512-2.428 5.3275-5.379 5.3076h-1.262v6.1579h-2.81zm2.821 8.1528 1.147-.0688-.034.0232c.079-.0042.157-.0114.235-.0218 1.582-.211 2.694-1.6644 2.482-3.2465.019-.1605.021-.3226.007-.4839-.117-1.3056-1.27-2.2697-2.575-2.1534h-1.262z" fill-rule="evenodd"/><path d="m141.033 42.2561h-2.809v-7.8779h-5.825v7.8779h-2.787v-16.375h2.787v6.2837h5.825v-6.2381h2.809v16.3177z"/><path d="m143.717 42.2561v-16.375h2.786v16.3633h-2.786z"/><path d="m159.117 28.8626c-.864-.5467-1.857-.8589-2.878-.9057-2.856 0-4.931 2.3619-4.931 6.0771s2.294 6.1694 5 6.1694c.994-.0026 1.968-.2845 2.809-.8141l.769 2.0298c-1.102.7149-2.38 1.1115-3.693 1.1465-4.816 0-7.855-3.7382-7.855-8.5545 0-4.4605 3.016-8.3707 7.901-8.3707 1.35.0419 2.658.4806 3.761 1.2614z"/></g></svg>

<svg width="160" height="48" viewBox="0 0 160 48" fill="none" xmlns="http://www.w3.org/2000/svg">
<path fill-rule="evenodd" clip-rule="evenodd" d="M0 0V47.015H32.8072V0H0ZM28.0598 4.73581V42.2788H4.72411V4.73581H28.0598Z" fill="#FFD520"/>
<path d="M54.6059 21.0879H52.5761C49.9159 17.3266 47.2668 13.5884 44.6295 9.35716V21.0879H42.3364V4.72437H44.3659C47.0263 8.4626 49.6751 12.178 52.2895 16.3864V4.72437H54.583V21.0879H54.6059Z" fill="white"/>
<path fill-rule="evenodd" clip-rule="evenodd" d="M55.3398 21.0879L61.0046 4.73589L61.0736 4.72437H63.3667L68.5384 21.0879H65.4078L64.1237 16.6272H59.1928L57.771 21.0879H55.3398ZM60.2514 13.5641C60.1434 13.9142 60.0352 14.2653 59.9269 14.6205H63.6651C63.5467 14.2025 63.4291 13.7902 63.3117 13.3785C62.8268 11.6783 62.3451 9.98925 61.8189 7.9583C61.331 10.063 60.7952 11.8007 60.2514 13.5641Z" fill="white"/>
<path d="M71.1988 21.0878V6.92608H66.8984V4.73584H78.2739V6.92608H73.9739V21.0878H71.1645H71.1988Z" fill="white"/>
<path d="M79.2256 21.0879V4.72437H82.012V21.0879H79.2256Z" fill="white"/>
<path fill-rule="evenodd" clip-rule="evenodd" d="M97.584 12.6022C97.584 17.4873 94.9237 21.2942 90.6466 21.2942V21.3745C86.3696 21.3745 83.709 17.5558 83.709 12.6022C83.709 8.01545 86.6562 4.3689 90.6466 4.3689C94.637 4.3689 97.584 8.01545 97.584 12.6022ZM86.6904 12.6479C86.6904 15.7785 87.7226 19.0007 90.6466 19.0007C93.5707 19.0007 94.5914 15.6639 94.5914 12.6479C94.5914 9.63226 93.4562 6.75386 90.6466 6.75386C87.8371 6.75386 86.6904 9.51738 86.6904 12.6479Z" fill="white"/>
<path d="M111.528 21.0879H109.499C106.838 17.3266 104.189 13.5884 101.552 9.35716V21.0879H99.2588V4.72437H101.288C103.949 8.4626 106.598 12.178 109.212 16.3864V4.72437H111.505V21.0879H111.528Z" fill="white"/>
<path fill-rule="evenodd" clip-rule="evenodd" d="M112.308 21.0993L117.961 4.73584H117.996H120.289L125.507 21.0993H122.376L121.092 16.6385H116.161L114.739 21.0993H112.308ZM117.207 13.5677C117.099 13.9165 116.991 14.2665 116.883 14.6204H120.622C120.507 14.2148 120.393 13.8145 120.279 13.415C119.79 11.7024 119.305 10.0037 118.775 7.95819C118.287 10.0643 117.751 11.803 117.207 13.5677Z" fill="white"/>
<path d="M126.321 4.72437H129.108V18.8861H134.646V21.0879H126.321V4.72437Z" fill="white"/>
<path d="M52.8745 34.7795V41.5334C51.399 42.1565 49.8202 42.4985 48.2191 42.5425C43.4028 42.5425 40.3638 38.8043 40.3638 33.9883C40.3638 29.5273 43.4028 25.6174 48.3106 25.6174C49.7306 25.6253 51.1143 26.0653 52.2783 26.8787L51.3724 28.8166C50.4663 28.2749 49.435 27.9787 48.3798 27.9568C45.3866 27.9568 43.3569 30.319 43.3569 34.0342C43.3569 37.7494 45.6502 40.2035 48.1044 40.2035C48.781 40.2328 49.4545 40.0947 50.065 39.8021V34.7795H52.8745Z" fill="white"/>
<path d="M62.9082 28.0939H58.2297V32.5777H62.8164V34.7795H58.2297V40.0657H63.7454V42.2673H55.4204V25.8811H62.897V28.0827L62.9082 28.0939Z" fill="white"/>
<path fill-rule="evenodd" clip-rule="evenodd" d="M78.4921 33.8048C78.4921 38.6896 75.8316 42.4968 71.5545 42.4968V42.5426C67.2773 42.5426 64.6172 38.7355 64.6172 33.8048C64.6172 29.2181 67.5642 25.5715 71.5545 25.5715C75.545 25.5715 78.4921 29.2181 78.4921 33.8048ZM67.6099 33.8507C67.6099 36.981 68.6305 40.2034 71.5545 40.2034C74.4787 40.2034 75.5107 36.8664 75.5108 33.8507C75.5108 30.8347 74.3526 27.9565 71.5545 27.9565C68.7566 27.9565 67.6099 30.7202 67.6099 33.8507Z" fill="white"/>
<path d="M91.9658 34.7795V41.5334C90.4903 42.1565 88.9112 42.4985 87.3101 42.5425C82.494 42.5425 79.4551 38.8043 79.4551 33.9883C79.4551 29.5273 82.494 25.6174 87.402 25.6174C88.8218 25.6253 90.2055 26.0653 91.3695 26.8787L90.4637 28.8166C89.5575 28.2749 88.5259 27.9787 87.4706 27.9568C84.4778 27.9568 82.448 30.319 82.448 34.0342C82.448 37.7494 84.7415 40.2035 87.1954 40.2035C87.872 40.2328 88.5455 40.0947 89.1563 39.8021V34.7795H91.9658Z" fill="white"/>
<path fill-rule="evenodd" clip-rule="evenodd" d="M101.208 35.479L104.453 42.2561H101.311L98.6739 36.0865H97.4125V42.2561H94.603V25.8926H98.972C102.102 25.8926 104.04 27.4404 104.04 30.6169C104.059 32.6343 102.972 34.4998 101.208 35.479ZM97.3666 28.0939H97.3436L97.3666 28.0825V28.0939ZM97.3666 28.0939V34.0456L98.5133 33.9768C98.5737 33.9728 98.6337 33.9667 98.6933 33.959C100.27 33.7528 101.38 32.3078 101.174 30.7315C101.194 30.5625 101.195 30.3918 101.178 30.2224C101.049 28.9176 99.8866 27.9648 98.5821 28.0939H97.3666Z" fill="white"/>
<path fill-rule="evenodd" clip-rule="evenodd" d="M104.5 42.2444L110.153 25.8811H110.199H112.492L117.709 42.2444H114.579L113.295 37.7835H108.364L106.942 42.2444H104.5ZM109.399 34.732C109.292 35.0822 109.183 35.4334 109.075 35.7886H112.813C112.67 35.2813 112.528 34.7835 112.387 34.286C111.926 32.6692 111.467 31.0553 110.967 29.1261C110.479 31.231 109.943 32.9687 109.399 34.732Z" fill="white"/>
<path fill-rule="evenodd" clip-rule="evenodd" d="M118.626 25.8811H122.995C126.091 25.8811 128.029 27.4403 128.075 30.6168C128.077 30.6707 128.077 30.7248 128.077 30.7789C128.057 33.7301 125.649 36.1064 122.698 36.0865H121.436V42.2444H118.626V25.8811ZM121.447 34.0339L122.594 33.9651L122.56 33.9883C122.639 33.9841 122.717 33.9769 122.795 33.9665C124.377 33.7555 125.489 32.3021 125.277 30.72C125.296 30.5595 125.298 30.3974 125.284 30.2361C125.167 28.9305 124.014 27.9664 122.709 28.0827H121.447V34.0339Z" fill="white"/>
<path d="M141.033 42.2561H138.224V34.3782H132.399V42.2561H129.612V25.8811H132.399V32.1648H138.224V25.9267H141.033V42.2444V42.2561Z" fill="white"/>
<path d="M143.717 42.2561V25.8811H146.503V42.2444H143.717V42.2561Z" fill="white"/>
<path d="M159.117 28.8626C158.253 28.3159 157.26 28.0037 156.239 27.9569C153.383 27.9569 151.308 30.3188 151.308 34.034C151.308 37.7492 153.602 40.2034 156.308 40.2034C157.302 40.2008 158.276 39.9189 159.117 39.3893L159.886 41.4191C158.784 42.134 157.506 42.5306 156.193 42.5656C151.377 42.5656 148.338 38.8274 148.338 34.0111C148.338 29.5506 151.354 25.6404 156.239 25.6404C157.589 25.6823 158.897 26.121 160 26.9018L159.117 28.8626Z" fill="white"/>
</svg>
